svgs/regular/distribute-spacing-vertical.svg

<svg xmlns="http://www.w3.org/2000/svg" viewBox="0 0 512 512"><!--! Font Awesome Pro 6.6.0 by @fontawesome - https://fontawesome.com License - https://fontawesome.com/license (Commercial License) Copyright 2024 Fonticons, Inc. --><path d="M0 56C0 69.3 10.7 80 24 80l464 0c13.3 0 24-10.7 24-24s-10.7-24-24-24L24 32C10.7 32 0 42.7 0 56zM368 208l0 96-224 0 0-96 224 0zM144 160c-26.5 0-48 21.5-48 48l0 96c0 26.5 21.5 48 48 48l224 0c26.5 0 48-21.5 48-48l0-96c0-26.5-21.5-48-48-48l-224 0zM24 432c-13.3 0-24 10.7-24 24s10.7 24 24 24l464 0c13.3 0 24-10.7 24-24s-10.7-24-24-24L24 432z"/></svg>

<svg xmlns="http://www.w3.org/2000/svg" viewBox="0 0 512 512"><!--! Font Awesome Pro 6.4.2 by @fontawesome - https://fontawesome.com License - https://fontawesome.com/license (Commercial License) Copyright 2023 Fonticons, Inc. --><path d="M0 56C0 69.3 10.7 80 24 80H488c13.3 0 24-10.7 24-24s-10.7-24-24-24H24C10.7 32 0 42.7 0 56zM368 208v96H144V208H368zM144 160c-26.5 0-48 21.5-48 48v96c0 26.5 21.5 48 48 48H368c26.5 0 48-21.5 48-48V208c0-26.5-21.5-48-48-48H144zM24 432c-13.3 0-24 10.7-24 24s10.7 24 24 24H488c13.3 0 24-10.7 24-24s-10.7-24-24-24H24z"/></svg>
